korla/apps/scalable/riot-web.svg

<svg width="48" height="48" xmlns="http://www.w3.org/2000/svg">
 <path d="m13.910156 4.9155607a6.0006 6.0006 0 0 0-5.910156 6.0839843v28a6.0006 6.0006 0 1 0 12 0v-5h5.5c8.008129 0 14.5-6.491871 14.5-14.5s-6.491871-14.5-14.5-14.5h-10.527344a6.0006 6.0006 0 0 0-1.0625-0.083984zm6.089844 11.083984h5.5c2.063288 0 3.5 1.436712 3.5 3.5s-1.436712 3.5-3.5 3.5h-5.5z" opacity=".2"/>
 <path d="m13.910156 4c.089844 4-1.910156 6-5.910156 6v28c-.047333 3.346895 2.652772 6.085452 6 6.085452s6.047333-2.738557 6-6.085452v-5h5.5c8.008129 0 14.5-6.491871 14.5-14.5s-6.491871-14.5-14.5-14.5h-10.527344c-.350974-.059455-1.0625 0-1.0625 0zm6.089844 11h5.5c2.063288 0 3.5 1.436712 3.5 3.5s-1.436712 3.5-3.5 3.5h-5.5z" fill="#a2ddef"/>
 <path d="m13.984375 8.9863281c-.551516.0086211-.991928.4621401-.984375 1.0136719v29c-.01913 1.352323 2.019125 1.352323 2 0v-11h10.5c5.246705 0 9.5-4.253295 9.5-9.5s-4.253295-9.5-9.5-9.5h-11.345703c-.05615-.00939-.112995-.013959-.169922-.013672zm1.015625 2.0136719h2 5 3.5c4.165825 0 7.5 3.334175 7.5 7.5s-3.334175 7.5-7.5 7.5h-3.5-5-2z" fill="#001851" opacity=".3"/>
 <path d="m13.910156 3.9160156a6.0006 6.0006 0 0 0 -5.910156 6.0839844v1a6.0006 6.0006 0 0 1 5.910156-6.0839844 6.0006 6.0006 0 0 1 1.0625.0839844h10.527344c7.839309 0 14.208832 6.225437 14.474609 14 .005724-.167426.025391-.33118.025391-.5 0-8.008129-6.491871-14.5-14.5-14.5h-10.527344a6.0006 6.0006 0 0 0 -1.0625-.0839844zm15.044922 15.0839844c-.216341 1.787625-1.565546 3-3.455078 3h-5.5v1h5.5c2.063288 0 3.5-1.436712 3.5-3.5 0-.173304-.02513-.336017-.044922-.5z" fill="#fff" opacity=".2"/>
 <path d="m13.892578 4.9997644c-1.155665.0189345-2.317973.3720556-3.333984 1.0839844-1.3126536.919225-2.1867786 2.2942387-2.464844 3.8730468-.27842 1.5788074.073224 3.1731984.9921875 4.4863274 1.8971585 2.711146 5.6461045 3.371133 8.3554685 1.472657 1.312297-.919581 2.188377-2.295836 2.466797-3.875.278065-1.578097-.075177-3.171247-.994141-4.484375-1.185723-1.6944659-3.095376-2.5881982-5.021484-2.5566406zm12.904297 17.9316406a6.0006 6.0006 0 0 0 -4.712891 9.509765l7 10a6.000874 6.000874 0 1 0 9.832032-6.882812l-7-10a6.0006 6.0006 0 0 0 -5.119141-2.626953z" fill-rule="evenodd" opacity=".1"/>
 <path d="m18.913587 6.5573457c.918963 1.313128 1.271865 2.9064987.9938 4.4845953-.27842 1.579164-1.154469 2.954805-2.466766 3.874386-2.709364 1.898476-6.457216 1.237473-8.3543741-1.473673-.9189634-1.313129-1.2718652-2.906144-.9934452-4.4849516.2780654-1.5788081 1.154113-2.9548043 2.4667663-3.8740293 2.709364-1.8984767 6.456861-1.2374729 8.354019 1.4736726z" fill="#368bd6" fill-rule="evenodd"/>
 <path d="m34 38-7-10" fill="none" stroke="#368bd6" stroke-linecap="round" stroke-width="12"/>
</svg>

<svg xmlns="http://www.w3.org/2000/svg" width="48" height="48" version="1">
 <path style="opacity:0.2" d="M 13.910156,4.9155607 A 6.0006,6.0006 0 0 0 8,10.999545 v 28 a 6.0006,6.0006 0 1 0 12,0 v -5 h 5.5 c 8.008129,0 14.5,-6.491871 14.5,-14.5 C 40,11.491416 33.508129,4.9995451 25.5,4.9995451 H 14.972656 a 6.0006,6.0006 0 0 0 -1.0625,-0.083984 z M 20,15.999545 h 5.5 c 2.063288,0 3.5,1.436712 3.5,3.5 0,2.063288 -1.436712,3.5 -3.5,3.5 H 20 Z"/>
 <path style="fill:#a2ddef" d="M 13.910156,4 C 14,8 12,10 8,10 v 28 c -0.047333,3.346895 2.652772,6.085452 6,6.085452 3.347228,0 6.047333,-2.738557 6,-6.085452 v -5 h 5.5 C 33.508129,33 40,26.508129 40,18.5 40,10.491871 33.508129,4 25.5,4 H 14.972656 c -0.350974,-0.059455 -1.0625,0 -1.0625,0 z M 20,15 h 5.5 c 2.063288,0 3.5,1.436712 3.5,3.5 0,2.063288 -1.436712,3.5 -3.5,3.5 H 20 Z"/>
 <path style="opacity:0.3;fill:#001851" d="M 13.984375,8.9863281 C 13.432859,8.9949492 12.992447,9.4484682 13,10 v 29 c -0.01913,1.352323 2.019125,1.352323 2,0 V 28 H 25.5 C 30.746705,28 35,23.746705 35,18.5 35,13.253295 30.746705,9 25.5,9 H 14.154297 c -0.05615,-0.00939 -0.112995,-0.013959 -0.169922,-0.013672 z M 15,11 h 2 5 3.5 c 4.165825,0 7.5,3.334175 7.5,7.5 0,4.165825 -3.334175,7.5 -7.5,7.5 H 22 17 15 Z"/>
 <path style="opacity:0.2;fill:#ffffff" d="M 13.910156 3.9160156 A 6.0006 6.0006 0 0 0 8 10 L 8 11 A 6.0006 6.0006 0 0 1 13.910156 4.9160156 A 6.0006 6.0006 0 0 1 14.972656 5 L 25.5 5 C 33.339309 5 39.708832 11.225437 39.974609 19 C 39.980333 18.832574 40 18.66882 40 18.5 C 40 10.491871 33.508129 4 25.5 4 L 14.972656 4 A 6.0006 6.0006 0 0 0 13.910156 3.9160156 z M 28.955078 19 C 28.738737 20.787625 27.389532 22 25.5 22 L 20 22 L 20 23 L 25.5 23 C 27.563288 23 29 21.563288 29 19.5 C 29 19.326696 28.97487 19.163983 28.955078 19 z"/>
 <path style="opacity:0.1;fill-rule:evenodd" d="M 13.892578,4.9997644 C 12.736913,5.0186989 11.574605,5.37182 10.558594,6.0837488 9.2459404,7.0029738 8.3718154,8.3779875 8.09375,9.9567956 c -0.27842,1.5788074 0.073224,3.1731984 0.9921875,4.4863274 1.8971585,2.711146 5.6461045,3.371133 8.3554685,1.472657 1.312297,-0.919581 2.188377,-2.295836 2.466797,-3.875 C 20.186268,10.462683 19.833026,8.869533 18.914062,7.556405 17.728339,5.8619391 15.818686,4.9682068 13.892578,4.9997644 Z M 26.796875,22.931405 a 6.0006,6.0006 0 0 0 -4.712891,9.509765 l 7,10 a 6.000874,6.000874 0 1 0 9.832032,-6.882812 l -7,-10 a 6.0006,6.0006 0 0 0 -5.119141,-2.626953 z"/>
 <path style="fill:#368bd6;fill-rule:evenodd" d="m 18.913587,6.5573457 c 0.918963,1.313128 1.271865,2.9064987 0.9938,4.4845953 -0.27842,1.579164 -1.154469,2.954805 -2.466766,3.874386 C 14.731257,16.814803 10.983405,16.1538 9.0862469,13.442654 8.1672835,12.129525 7.8143817,10.53651 8.0928017,8.9577024 8.3708671,7.3788943 9.2469147,6.0028981 10.559568,5.0836731 13.268932,3.1851964 17.016429,3.8462002 18.913587,6.5573457 Z"/>
 <path style="fill:none;stroke:#368bd6;stroke-width:12;stroke-linecap:round" d="M 34,38 27,28"/>
</svg>
